X: 26510
T: Michael Rankin's
R: reel
M: 4/4
K: Amajor
|:B|AF~F2 A2 EF|ABce fccc|eccA B2 ce|fccc BABc|
AF~F2 A2 EF|ABce fccc|eccA B2 AB|cefc A2 A:|
|:a|ec ~c2 c2 BA|ce f2 ecca|ec ~c2 c2 BA|cefc B2 Ba|
ec ~c2 c2 BA|ce f2 ecce|aefc e2 cB|cefc A2 A:|
|:c|e2 cB ce f2|fefa eccc|e2 cB ce f2|fecA B2 Bc|
e2 cB ce f2|fefa ecce|aefc e2 cB|cefc A2 A:|

